src/_icons/vn-hsbc.svg

---
version: "0.0.4"
---
<svg>
  <path d="M35.257 4.5l11.243 11.263l-11.243 11.237v-22.5zm-11.244 11.263l11.244 11.237h-22.487l11.243 -11.237zm-11.243 -11.263v22.5l-11.27 -11.237l11.27 -11.263zm22.487 0l-11.244 11.263l-11.243 -11.263h22.487zm-25.858 33.52h-5.266v5.239h-2.633v-12.269h2.633v5.031h5.266v-5.03h2.633v12.267h-2.633v-5.238zm8.993 5.48c-2.633 0 -4.787 -1.068 -4.821 -3.997h2.633c.034 1.31 .786 2.102 2.222 2.102c1.06 0 2.291 -.552 2.291 -1.758c0 -.965 -.82 -1.24 -2.188 -1.654l-.89 -.241c-1.914 -.551 -3.829 -1.31 -3.829 -3.515c0 -2.722 2.53 -3.653 4.821 -3.653c2.36 0 4.412 .827 4.446 3.55h-2.633c-.103 -1.103 -.753 -1.758 -1.984 -1.758c-.991 0 -1.949 .517 -1.949 1.62c0 .896 .821 1.172 2.53 1.723l1.027 .31c2.085 .655 3.42 1.378 3.42 3.446c-.035 2.757 -2.702 3.825 -5.096 3.825zm6.565 -12.474h4.24c.787 -.035 1.608 0 2.394 .138c1.47 .344 2.599 1.309 2.599 2.963c0 1.585 -.992 2.378 -2.428 2.757c1.641 .31 2.872 1.137 2.872 2.963c0 2.792 -2.735 3.412 -4.855 3.412h-4.787l-.035 -12.233zm4.24 5.1c1.163 0 2.36 -.242 2.36 -1.654c0 -1.275 -1.094 -1.62 -2.188 -1.62h-1.847v3.274h1.676zm.24 5.306c1.23 0 2.428 -.275 2.428 -1.791c0 -1.517 -1.026 -1.792 -2.291 -1.792h-2.086v3.583h1.949zm12.036 2.068c-3.932 0 -5.676 -2.516 -5.676 -6.272c0 -3.756 1.95 -6.478 5.813 -6.478c2.428 0 4.787 1.103 4.856 3.86h-2.736c-.137 -1.241 -.957 -1.861 -2.12 -1.861c-2.393 0 -3.112 2.584 -3.112 4.548s.719 4.239 3.01 4.239c1.196 0 2.085 -.655 2.256 -1.895h2.736c-.274 2.825 -2.496 3.859 -5.027 3.859z" />
</svg>

<svg>
  <path d="M35.257 4.5 46.5 15.763 35.257 27V4.5ZM24.013 15.763 35.257 27H12.77l11.243-11.237ZM12.77 4.5V27L1.5 15.763 12.77 4.5Zm22.487 0L24.013 15.763 12.77 4.5h22.487ZM9.399 38.02H4.133v5.239H1.5V30.99h2.633v5.031h5.266v-5.03h2.633v12.267H9.399V38.02Zm8.993 5.48c-2.633 0-4.787-1.068-4.821-3.997h2.633c.034 1.31.786 2.102 2.222 2.102 1.06 0 2.291-.552 2.291-1.758 0-.965-.82-1.24-2.188-1.654l-.89-.241c-1.914-.551-3.829-1.31-3.829-3.515 0-2.722 2.53-3.653 4.821-3.653 2.36 0 4.412.827 4.446 3.55h-2.633c-.103-1.103-.753-1.758-1.984-1.758-.991 0-1.949.517-1.949 1.62 0 .896.821 1.172 2.53 1.723l1.027.31c2.085.655 3.42 1.378 3.42 3.446-.035 2.757-2.702 3.825-5.096 3.825Zm6.565-12.474h4.24c.787-.035 1.608 0 2.394.138 1.47.344 2.599 1.309 2.599 2.963 0 1.585-.992 2.378-2.428 2.757 1.641.31 2.872 1.137 2.872 2.963 0 2.792-2.735 3.412-4.855 3.412h-4.787l-.035-12.233Zm4.24 5.1c1.163 0 2.36-.242 2.36-1.654 0-1.275-1.094-1.62-2.188-1.62h-1.847v3.274h1.676Zm.24 5.306c1.23 0 2.428-.275 2.428-1.791 0-1.517-1.026-1.792-2.291-1.792h-2.086v3.583h1.949ZM41.473 43.5c-3.932 0-5.676-2.516-5.676-6.272 0-3.756 1.95-6.478 5.813-6.478 2.428 0 4.787 1.103 4.856 3.86H43.73c-.137-1.241-.957-1.861-2.12-1.861-2.393 0-3.112 2.584-3.112 4.548s.719 4.239 3.01 4.239c1.196 0 2.085-.655 2.256-1.895H46.5c-.274 2.825-2.496 3.859-5.027 3.859Z"/>
</svg>
